;FLAVOR:Marlin
;TIME:3183
;Filament used: 2.03181m
;Layer height: 0.2
;MINX:73.6
;MINY:86.3
;MINZ:0.2
;MAXX:146.4
;MAXY:133.7
;MAXZ:25.4
;Generated with Cura_SteamEngine main
M82 ;absolute extrusion mode
; Ender 3 Custom Start G-code
G92 E0 ; Reset Extruder
G28 ; Home all axes
M104 S175 ; Start heating up the nozzle most of the way
M190 S60 ; Start heating the bed, wait until target temperature reached
M109 S200 ; Finish heating the nozzle
G1 Z2.0 F3000 ; Move Z Axis up little to prevent scratching of Heat Bed
G1 X0.1 Y20 Z0.3 F5000.0 ; Move to start position
G1 X0.1 Y200.0 Z0.3 F1500.0 E15 ; Draw the first line
G1 X0.4 Y200.0 Z0.3 F5000.0 ; Move to side a little
G1 X0.4 Y20 Z0.3 F1500.0 E30 ; Draw the second line
G92 E0 ; Reset Extruder
G1 Z2.0 F3000 ; Move Z Axis up little to prevent scratching of Heat Bed
G1 X5 Y20 Z0.3 F5000.0 ; Move over to prevent blob squish
G92 E0
G92 E0
G1 F1500 E-6.5
;LAYER_COUNT:127
;LAYER:0
M107
G0 F6000 X77.486 Y88.927 Z0.2
G0 X73.601 Y97.825
;TYPE:SKIRT
G1 F1500 E0
G1 F1200 X73.61 Y97.16 E0.02212
G1 X73.663 Y96.224 E0.0533
G1 X73.795 Y95.295 E0.08451
G1 X74.006 Y94.381 E0.11571
G1 X74.294 Y93.489 E0.14689
G1 X74.657 Y92.624 E0.17809
G1 X75.092 Y91.793 E0.20928
G1 X75.596 Y91.003 E0.24045
G1 X76.166 Y90.258 E0.27165
G1 X76.798 Y89.564 E0.30287
G1 X77.486 Y88.927 E0.33405
G1 X78.226 Y88.351 E0.36524
G1 X79.012 Y87.839 E0.39644
G1 X79.839 Y87.397 E0.42763
G1 X80.701 Y87.027 E0.45883
G1 X81.591 Y86.731 E0.49003
G1 X82.503 Y86.513 E0.52122
G1 X83.43 Y86.372 E0.5524
G1 X84.301 Y86.313 E0.58144
G1 X84.93 Y86.3 E0.60236
G1 X134.851 Y86.301 E2.26274
G1 X135.549 Y86.311 E2.28596
G1 X136.485 Y86.365 E2.31714
G1 X137.413 Y86.497 E2.34832
G1 X138.327 Y86.709 E2.37953
G1 X139.219 Y86.998 E2.41071
G1 X140.084 Y87.361 E2.44191
G1 X140.914 Y87.797 E2.4731
G1 X141.705 Y88.302 E2.50431
G1 X142.449 Y88.873 E2.5355
G1 X143.142 Y89.505 E2.5667
G1 X143.779 Y90.193 E2.59788
G1 X144.354 Y90.934 E2.62908
G1 X144.865 Y91.72 E2.66026
G1 X145.307 Y92.548 E2.69148
G1 X145.676 Y93.41 E2.72266
G1 X145.971 Y94.3 E2.75385
G1 X146.189 Y95.212 E2.78504
G1 X146.329 Y96.14 E2.81625
G1 X146.387 Y97.001 E2.84495
G1 X146.4 Y97.63 E2.86588
G1 X146.399 Y122.1 E3.67975
G1 X146.39 Y122.827 E3.70394
G1 X146.339 Y123.764 E3.73515
G1 X146.207 Y124.692 E3.76632
G1 X145.998 Y125.606 E3.79751
G1 X145.711 Y126.499 E3.82871
G1 X145.349 Y127.365 E3.85992
G1 X144.915 Y128.196 E3.89111
G1 X144.411 Y128.987 E3.9223
G1 X143.842 Y129.732 E3.95348
G1 X143.211 Y130.427 E3.9847
G1 X142.524 Y131.065 E4.01589
G1 X141.785 Y131.642 E4.04707
G1 X140.999 Y132.154 E4.07827
G1 X140.173 Y132.597 E4.10944
G1 X139.311 Y132.969 E4.14067
G1 X138.422 Y133.265 E4.17183
G1 X137.51 Y133.485 E4.20304
G1 X136.583 Y133.626 E4.23422
G1 X135.699 Y133.687 E4.2637
G1 X135.07 Y133.7 E4.28462
G1 X85.165 Y133.699 E5.94447
G1 X84.467 Y133.69 E5.96769
G1 X83.531 Y133.638 E5.99887
G1 X82.602 Y133.506 E6.03007
G1 X81.688 Y133.296 E6.06127
G1 X80.795 Y133.009 E6.09246
G1 X79.93 Y132.646 E6.12366
G1 X79.099 Y132.212 E6.15485
G1 X78.308 Y131.708 E6.18604
G1 X77.563 Y131.138 E6.21724
G1 X76.869 Y130.507 E6.24844
G1 X76.232 Y129.82 E6.2796
G1 X75.655 Y129.08 E6.31081
G1 X75.143 Y128.294 E6.34201
G1 X74.7 Y127.467 E6.37321
G1 X74.329 Y126.606 E6.40439
G1 X74.033 Y125.716 E6.43559
G1 X73.814 Y124.804 E6.46679
G1 X73.673 Y123.877 E6.49797
G1 X73.613 Y122.988 E6.52761
G1 X73.6 Y122.358 E6.54857
G1 X73.601 Y97.825 E7.36454
G0 F6000 X74.001 Y97.831
G1 F1200 X74.01 Y97.166 E7.38666
G1 X74.062 Y96.246 E7.41731
G1 X74.194 Y95.335 E7.44792
G1 X74.405 Y94.439 E7.47854
G1 X74.692 Y93.564 E7.50917
G1 X75.055 Y92.718 E7.53979
G1 X75.489 Y91.906 E7.57041
G1 X75.992 Y91.135 E7.60103
G1 X76.561 Y90.411 E7.63165
G1 X77.189 Y89.739 E7.66225
G1 X77.874 Y89.123 E7.69289
G1 X78.61 Y88.57 E7.7235
G1 X79.391 Y88.082 E7.75414
G1 X80.211 Y87.664 E7.78475
G1 X81.065 Y87.319 E7.81538
G1 X81.945 Y87.049 E7.846
G1 X82.845 Y86.857 E7.87661
G1 X83.759 Y86.743 E7.90724
G1 X84.312 Y86.713 E7.92566
G1 X84.93 Y86.7 E7.94622
G1 X134.693 Y86.7 E9.60134
G1 X135.543 Y86.711 E9.62962
G1 X136.462 Y86.764 E9.66023
G1 X137.373 Y86.897 E9.69086
G1 X138.269 Y87.108 E9.72147
G1 X139.143 Y87.396 E9.75208
G1 X139.99 Y87.759 E9.78273
G1 X140.801 Y88.194 E9.81334
G1 X141.571 Y88.698 E9.84395
G1 X142.295 Y89.267 E9.87457
G1 X142.967 Y89.897 E9.90521
G1 X143.582 Y90.582 E9.93583
G1 X144.135 Y91.318 E9.96645
G1 X144.622 Y92.099 E9.99706
G1 X145.039 Y92.92 E10.02769
G1 X145.384 Y93.774 E10.05832
G1 X145.653 Y94.654 E10.08893
G1 X145.845 Y95.555 E10.11957
G1 X145.958 Y96.468 E10.15017
G1 X145.987 Y97.012 E10.16828
G1 X146 Y97.63 E10.18884
G1 X145.999 Y122.095 E11.00255
G1 X145.99 Y122.822 E11.02674
G1 X145.939 Y123.741 E11.05735
G1 X145.808 Y124.653 E11.08799
G1 X145.598 Y125.549 E11.1186
G1 X145.312 Y126.424 E11.14922
G1 X144.951 Y127.271 E11.17984
G1 X144.517 Y128.083 E11.21047
G1 X144.015 Y128.855 E11.24109
G1 X143.447 Y129.58 E11.27173
G1 X142.819 Y130.253 E11.30234
G1 X142.135 Y130.869 E11.33296
G1 X141.4 Y131.423 E11.36357
G1 X140.62 Y131.912 E11.39419
G1 X139.8 Y132.331 E11.42482
G1 X138.947 Y132.677 E11.45543
G1 X138.067 Y132.948 E11.48606
G1 X137.167 Y133.141 E11.51667
G1 X136.253 Y133.256 E11.54731
G1 X135.688 Y133.287 E11.56613
G1 X135.07 Y133.3 E11.58669
G1 X85.17 Y133.299 E13.24637
G1 X84.472 Y133.29 E13.26959
G1 X83.553 Y133.238 E13.30021
G1 X82.642 Y133.107 E13.33082
G1 X81.746 Y132.897 E13.36143
G1 X80.871 Y132.61 E13.39205
G1 X80.024 Y132.248 E13.42269
G1 X79.212 Y131.814 E13.45331
G1 X78.441 Y131.312 E13.48391
G1 X77.716 Y130.744 E13.51455
G1 X77.043 Y130.115 E13.54519
G1 X76.428 Y129.431 E13.57578
G1 X75.874 Y128.696 E13.60639
G1 X75.386 Y127.915 E13.63702
G1 X74.967 Y127.095 E13.66765
G1 X74.621 Y126.242 E13.69827
G1 X74.351 Y125.362 E13.72888
G1 X74.158 Y124.461 E13.75953
G1 X74.044 Y123.548 E13.79013
G1 X74.013 Y122.977 E13.80915
G1 X74 Y122.358 E13.82974
G1 X74.001 Y97.831 E14.64551
G0 F6000 X74.401 Y97.836
G1 F1200 X74.41 Y97.171 E14.66763
G1 X74.462 Y96.269 E14.69768
G1 X74.594 Y95.376 E14.72771
G1 X74.804 Y94.498 E14.75773
G1 X75.091 Y93.641 E14.78779
G1 X75.453 Y92.814 E14.81782
G1 X75.886 Y92.022 E14.84784
G1 X76.388 Y91.271 E14.87789
G1 X76.955 Y90.567 E14.90795
G1 X77.581 Y89.917 E14.93797
G1 X78.262 Y89.324 E14.968
G1 X78.994 Y88.794 E14.99806
G1 X79.769 Y88.331 E15.02808
G1 X80.582 Y87.938 E15.05812
G1 X81.427 Y87.618 E15.08817
G1 X82.296 Y87.375 E15.11818
G1 X83.184 Y87.209 E15.14823
G1 X84.323 Y87.113 E15.18625
G1 X84.93 Y87.1 E15.20644
G1 X134.693 Y87.1 E16.86157
G1 X135.537 Y87.111 E16.88964
G1 X136.439 Y87.164 E16.91969
G1 X137.332 Y87.296 E16.94972
G1 X138.21 Y87.507 E16.97975
G1 X139.066 Y87.795 E17.00979
G1 X139.893 Y88.157 E17.03981
G1 X140.685 Y88.592 E17.06987
G1 X141.436 Y89.094 E17.09991
G1 X142.139 Y89.661 E17.12995
G1 X142.789 Y90.288 E17.15999
G1 X143.381 Y90.97 E17.19003
G1 X143.911 Y91.701 E17.22006
G1 X144.373 Y92.477 E17.2501
G1 X144.766 Y93.29 E17.28013
G1 X145.084 Y94.135 E17.31016
G1 X145.327 Y95.005 E17.3402
G1 X145.492 Y95.893 E17.37024
G1 X145.587 Y97.023 E17.40796
G1 X145.6 Y97.63 E17.42815
G1 X145.599 Y122.09 E18.2417
G1 X145.59 Y122.817 E18.26588
G1 X145.539 Y123.719 E18.29593
G1 X145.408 Y124.613 E18.32598
G1 X145.199 Y125.491 E18.356
G1 X144.913 Y126.348 E18.38605
G1 X144.552 Y127.176 E18.41609
G1 X144.12 Y127.968 E18.4461
G1 X143.619 Y128.72 E18.47615
G1 X143.053 Y129.424 E18.50619
G1 X142.428 Y130.075 E18.53621
G1 X141.747 Y130.669 E18.56627
G1 X141.016 Y131.2 E18.59632
G1 X140.242 Y131.664 E18.62633
G1 X139.429 Y132.058 E18.65638
G1 X138.585 Y132.378 E18.6864
G1 X137.715 Y132.623 E18.71646
G1 X136.828 Y132.789 E18.74648
G1 X135.677 Y132.887 E18.7849
G1 X135.07 Y132.9 E18.80509
G1 X85.175 Y132.899 E20.46461
G1 X84.477 Y132.89 E20.48782
G1 X83.576 Y132.839 E20.51784
G1 X82.682 Y132.707 E20.5479
G1 X81.804 Y132.498 E20.57791
G1 X80.947 Y132.211 E20.60797
G1 X80.12 Y131.85 E20.63799
G1 X79.327 Y131.417 E20.66804
G1 X78.576 Y130.916 E20.69806
G1 X77.872 Y130.35 E20.72811
G1 X77.221 Y129.724 E20.75815
G1 X76.628 Y129.043 E20.78818
G1 X76.098 Y128.312 E20.81821
G1 X75.634 Y127.537 E20.84826
G1 X75.24 Y126.724 E20.8783
G1 X74.92 Y125.88 E20.90833
G1 X74.676 Y125.01 E20.93838
G1 X74.51 Y124.122 E20.96842
G1 X74.413 Y122.967 E21.00698
G1 X74.4 Y122.358 E21.02724
G1 X74.401 Y97.836 E21.84284
G1 F1500 E15.34284
;MESH:TemplatePrint.stl
G0 F6000 X83.935 Y97.836
G0 X85.2 Y122.1
;TYPE:WALL-INNER
G1 F1500 E21.84284
G1 F1200 X134.8 Y122.1 E23.49254
G1 X134.8 Y97.9 E24.29744
G1 X85.2 Y97.9 E25.94714
G1 X85.2 Y122.1 E26.75204
G0 F6000 X84.8 Y122.5
;TYPE:WALL-OUTER
G1 F1200 X135.2 Y122.5 E28.42835
G1 X135.2 Y97.5 E29.25985
G1 X84.8 Y97.5 E30.93616
G1 X84.8 Y122.5 E31.76766
G0 F6000 X85.07 Y122.23
G0 X85.3 Y121.74
G0 X85.56 Y121.74
;TYPE:SKIN
G1 F1200 X134.44 Y121.74 E33.39342
G1 X134.44 Y110 E33.78389
G1 X134.44 Y98.26 E34.17437
G1 X85.56 Y98.26 E35.80012
G1 X85.56 Y121.74 E36.58107
G0 F6000 X85.901 Y121.539
G1 F1200 X85.76 Y121.398 E36.5877
G0 F6000 X85.76 Y120.832
G1 F1200 X86.467 Y121.539 E36.62096
G0 F6000 X87.032 Y121.539
G1 F1200 X85.76 Y120.266 E36.68081
G0 F6000 X85.76 Y119.701
G1 F1200 X87.598 Y121.539 E36.76727
G0 F6000 X88.164 Y121.539
G1 F1200 X85.76 Y119.135 E36.88034
G0 F6000 X85.76 Y118.569
G1 F1200 X88.729 Y121.539 E37.02002
G0 F6000 X89.295 Y121.539
G1 F1200 X85.76 Y118.004 E37.1863
G0 F6000 X85.76 Y117.438
G1 F1200 X89.861 Y121.539 E37.37919
G0 F6000 X90.426 Y121.539
G1 F1200 X85.76 Y116.872 E37.59869
G0 F6000 X85.76 Y116.307
G1 F1200 X90.992 Y121.539 E37.84479
G0 F6000 X91.558 Y121.539
G1 F1200 X85.76 Y115.741 E38.11751
G0 F6000 X85.76 Y115.175
G1 F1200 X92.123 Y121.539 E38.41683
G0 F6000 X92.689 Y121.539
G1 F1200 X85.76 Y114.609 E38.74277
G0 F6000 X85.76 Y114.044
G1 F1200 X93.255 Y121.539 E39.09531
G0 F6000 X93.821 Y121.539
G1 F1200 X85.76 Y113.478 E39.47448
G0 F6000 X85.76 Y112.912
G1 F1200 X94.386 Y121.539 E39.88024
G0 F6000 X94.952 Y121.539
G1 F1200 X85.76 Y112.347 E40.31261
G0 F6000 X85.76 Y111.781
G1 F1200 X95.518 Y121.539 E40.77159
G0 F6000 X96.083 Y121.539
G1 F1200 X85.76 Y111.215 E41.25718
G0 F6000 X85.76 Y110.65
G1 F1200 X96.649 Y121.539 E41.76936
G0 F6000 X97.215 Y121.539
G1 F1200 X85.76 Y110.084 E42.30817
G0 F6000 X85.76 Y109.518
G1 F1200 X97.78 Y121.539 E42.87358
G0 F6000 X98.346 Y121.539
G1 F1200 X85.76 Y108.953 E43.46559
G0 F6000 X85.76 Y108.387
G1 F1200 X98.912 Y121.539 E44.08422
G0 F6000 X99.477 Y121.539
G1 F1200 X85.76 Y107.821 E44.72944
G0 F6000 X85.76 Y107.256
G1 F1200 X100.043 Y121.539 E45.40127
G0 F6000 X100.609 Y121.539
G1 F1200 X85.76 Y106.69 E46.09972
G0 F6000 X85.76 Y106.124
G1 F1200 X101.174 Y121.539 E46.82478
G0 F6000 X101.74 Y121.539
G1 F1200 X85.76 Y105.559 E47.57643
G0 F6000 X85.76 Y104.993
G1 F1200 X102.306 Y121.539 E48.3547
G0 F6000 X102.872 Y121.539
G1 F1200 X85.76 Y104.427 E49.15959
G0 F6000 X85.76 Y103.861
G1 F1200 X103.437 Y121.539 E49.99109
G0 F6000 X104.003 Y121.539
G1 F1200 X85.76 Y103.296 E50.84918
G0 F6000 X85.76 Y102.73
G1 F1200 X104.569 Y121.539 E51.7339
G0 F6000 X105.134 Y121.539
G1 F1200 X85.76 Y102.164 E52.64522
G0 F6000 X85.76 Y101.599
G1 F1200 X105.7 Y121.539 E53.58314
G0 F6000 X106.266 Y121.539
G1 F1200 X85.76 Y101.033 E54.54768
G0 F6000 X85.76 Y100.467
G1 F1200 X106.831 Y121.539 E55.53881
G0 F6000 X107.397 Y121.539
G1 F1200 X85.76 Y99.902 E56.55655
G0 F6000 X85.76 Y99.336
G1 F1200 X107.963 Y121.539 E57.60091
G0 F6000 X108.528 Y121.539
G1 F1200 X85.76 Y98.77 E58.67187
G0 F6000 X86.014 Y98.459
G1 F1200 X109.094 Y121.539 E59.75749
G0 F6000 X109.66 Y121.539
G1 F1200 X86.58 Y98.459 E60.8431
G0 F6000 X87.145 Y98.459
G1 F1200 X110.225 Y121.539 E61.92871
G0 F6000 X110.791 Y121.539
G1 F1200 X87.711 Y98.459 E63.01432
G0 F6000 X88.277 Y98.459
G1 F1200 X111.357 Y121.539 E64.09994
G0 F6000 X111.922 Y121.539
G1 F1200 X88.843 Y98.459 E65.18552
G0 F6000 X89.408 Y98.459
G1 F1200 X112.488 Y121.539 E66.27114
G0 F6000 X113.054 Y121.539
G1 F1200 X89.974 Y98.459 E67.35675
G0 F6000 X90.54 Y98.459
G1 F1200 X113.62 Y121.539 E68.44236
G0 F6000 X114.185 Y121.539
G1 F1200 X91.105 Y98.459 E69.52797
G0 F6000 X91.671 Y98.459
G1 F1200 X114.751 Y121.539 E70.61359
G0 F6000 X115.317 Y121.539
G1 F1200 X92.237 Y98.459 E71.6992
G0 F6000 X92.802 Y98.459
G1 F1200 X115.882 Y121.539 E72.78481
G0 F6000 X116.448 Y121.539
G1 F1200 X93.368 Y98.459 E73.87042
G0 F6000 X93.934 Y98.459
G1 F1200 X117.014 Y121.539 E74.95604
G0 F6000 X117.579 Y121.539
G1 F1200 X94.499 Y98.459 E76.04165
G0 F6000 X95.065 Y98.459
G1 F1200 X118.145 Y121.539 E77.12726
G0 F6000 X118.711 Y121.539
G1 F1200 X95.631 Y98.459 E78.21287
G0 F6000 X96.196 Y98.459
G1 F1200 X119.276 Y121.539 E79.29849
G0 F6000 X119.842 Y121.539
G1 F1200 X96.762 Y98.459 E80.3841
G0 F6000 X97.328 Y98.459
G1 F1200 X120.408 Y121.539 E81.46971
G0 F6000 X120.973 Y121.539
G1 F1200 X97.893 Y98.459 E82.55532
G0 F6000 X98.459 Y98.459
G1 F1200 X121.539 Y121.539 E83.64094
G0 F6000 X122.105 Y121.539
G1 F1200 X99.025 Y98.459 E84.72655
G0 F6000 X99.591 Y98.459
G1 F1200 X122.671 Y121.539 E85.81216
G0 F6000 X123.236 Y121.539
G1 F1200 X100.156 Y98.459 E86.89777
G0 F6000 X100.722 Y98.459
G1 F1200 X123.802 Y121.539 E87.98339
G0 F6000 X124.368 Y121.539
G1 F1200 X101.288 Y98.459 E89.069
G0 F6000 X101.853 Y98.459
G1 F1200 X124.933 Y121.539 E90.15461
G0 F6000 X125.499 Y121.539
G1 F1200 X102.419 Y98.459 E91.24022
G0 F6000 X102.985 Y98.459
G1 F1200 X126.065 Y121.539 E92.32584
G0 F6000 X126.63 Y121.539
G1 F1200 X103.55 Y98.459 E93.41145
G0 F6000 X104.116 Y98.459
G1 F1200 X127.196 Y121.539 E94.49706
G0 F6000 X127.762 Y121.539
G1 F1200 X104.682 Y98.459 E95.58267
G0 F6000 X105.247 Y98.459
G1 F1200 X128.327 Y121.539 E96.66829
G0 F6000 X128.893 Y121.539
G1 F1200 X105.813 Y98.459 E97.7539
G0 F6000 X106.379 Y98.459
G1 F1200 X129.459 Y121.539 E98.83951
G0 F6000 X130.024 Y121.539
G1 F1200 X106.944 Y98.459 E99.92512
G0 F6000 X107.51 Y98.459
G1 F1200 X130.59 Y121.539 E101.01074
G0 F6000 X131.156 Y121.539
G1 F1200 X108.076 Y98.459 E102.09635
G0 F6000 X108.642 Y98.459
G1 F1200 X131.721 Y121.539 E103.18194
G0 F6000 X132.287 Y121.539
G1 F1200 X109.207 Y98.459 E104.26755
G0 F6000 X109.773 Y98.459
G1 F1200 X132.853 Y121.539 E105.35316
G0 F6000 X133.419 Y121.539
G1 F1200 X110.339 Y98.459 E106.43877
G0 F6000 X110.904 Y98.459
G1 F1200 X133.984 Y121.539 E107.52439
G0 F6000 X134.239 Y121.228
G1 F1200 X111.47 Y98.459 E108.59537
G0 F6000 X112.036 Y98.459
G1 F1200 X134.239 Y120.662 E109.63973
G0 F6000 X134.239 Y120.097
G1 F1200 X112.601 Y98.459 E110.65752
G0 F6000 X113.167 Y98.459
G1 F1200 X134.239 Y119.531 E111.64868
G0 F6000 X134.239 Y118.965
G1 F1200 X113.733 Y98.459 E112.61322
G0 F6000 X114.298 Y98.459
G1 F1200 X134.239 Y118.4 E113.55118
G0 F6000 X134.239 Y117.834
G1 F1200 X114.864 Y98.459 E114.46252
G0 F6000 X115.43 Y98.459
G1 F1200 X134.239 Y117.268 E115.34724
G0 F6000 X134.239 Y116.703
G1 F1200 X115.995 Y98.459 E116.20538
G0 F6000 X116.561 Y98.459
G1 F1200 X134.239 Y116.137 E117.0369
G0 F6000 X134.239 Y115.571
G1 F1200 X117.127 Y98.459 E117.8418
G0 F6000 X117.692 Y98.459
G1 F1200 X134.239 Y115.005 E118.62009
G0 F6000 X134.239 Y114.44
G1 F1200 X118.258 Y98.459 E119.37179
G0 F6000 X118.824 Y98.459
G1 F1200 X134.239 Y113.874 E120.09687
G0 F6000 X134.239 Y113.308
G1 F1200 X119.39 Y98.459 E120.79532
G0 F6000 X119.955 Y98.459
G1 F1200 X134.239 Y112.743 E121.46719
G0 F6000 X134.239 Y112.177
G1 F1200 X120.521 Y98.459 E122.11244
G0 F6000 X121.087 Y98.459
G1 F1200 X134.239 Y111.611 E122.73107
G0 F6000 X134.239 Y111.046
G1 F1200 X121.652 Y98.459 E123.32313
G0 F6000 X122.218 Y98.459
G1 F1200 X134.239 Y110.48 E123.88856
G0 F6000 X134.239 Y109.914
G1 F1200 X122.784 Y98.459 E124.42737
G0 F6000 X123.349 Y98.459
G1 F1200 X134.239 Y109.349 E124.9396
G0 F6000 X134.239 Y108.783
G1 F1200 X123.915 Y98.459 E125.42521
G0 F6000 X124.481 Y98.459
G1 F1200 X134.239 Y108.217 E125.8842
G0 F6000 X134.239 Y107.652
G1 F1200 X125.046 Y98.459 E126.31661
G0 F6000 X125.612 Y98.459
G1 F1200 X134.239 Y107.086 E126.72239
G0 F6000 X134.239 Y106.52
G1 F1200 X126.178 Y98.459 E127.10156
G0 F6000 X126.743 Y98.459
G1 F1200 X134.239 Y105.955 E127.45415
G0 F6000 X134.239 Y105.389
